; generated by PrusaSlicer 2.6.0+MacOS-arm64 on 2023-08-16 at 18:39:13 UTC

; 

; external perimeters extrusion width = 0.42mm
; perimeters extrusion width = 0.44mm
; infill extrusion width = 0.44mm
; solid infill extrusion width = 0.44mm
; top infill extrusion width = 0.40mm
; support material extrusion width = 0.36mm
; first layer extrusion width = 0.42mm

;TYPE:Custom
G90 ; use absolute coordinates
M83 ; extruder relative mode
M104 S150 ; set temporary nozzle temp to prevent oozing during homing
M140 S56 ; set final bed temp
G4 S30 ; allow partial nozzle warmup
G28 ; home all axis
G1 Z50 F240
G1 X2.0 Y10 F3000
M104 S208 ; set final nozzle temp
M190 S56 ; wait for bed temp to stabilize
M109 S208 ; wait for nozzle temp to stabilize
G28
G29
G1 Z0.28 F240
G92 E0
G1 X2.0 Y140 E10 F1500 ; prime the nozzle
G1 X2.3 Y140 F5000
G92 E0
G1 X2.3 Y10 E10 F1200 ; prime the nozzle
G92 E0
G21 ; set units to millimeters
G90 ; use absolute coordinates
M83 ; use relative distances for extrusion
; Filament gcode
M107
;LAYER_CHANGE
;Z:0.32
;HEIGHT:0.32
;BEFORE_LAYER_CHANGE
G92 E0
;0.32


G1 E-3.5 F4800
G1 Z.32 F54000
;AFTER_LAYER_CHANGE
;0.32
G1 X22.37 Y17.332
G1 E3.5 F2400
M204 S4000
;TYPE:Skirt/Brim
;WIDTH:0.42
G1 F1200
G1 X28.941 Y8.852 E.50143
G1 X30.512 Y7.243 E.10511
G1 X31.905 Y6.407 E.07594
G1 X32.882 Y6.262 E.04617
G1 X39.414 Y6.262 E.30531
G1 X40.991 Y6.656 E.07598
G1 X41.792 Y7.252 E.04667
G1 X157.13 Y123.439 E7.65212
G1 X157.961 Y124.835 E.07594
G1 X158.037 Y126.458 E.07594
G1 X157.121 Y128.169 E.09071
G1 X128.853 Y156.437 E1.86856
G1 X127.46 Y157.273 E.07594
G1 X125.837 Y157.355 E.07596
G1 X124.114 Y156.437 E.09125
G1 X8.148 Y40.471 E7.66552
G1 X7.312 Y39.078 E.07594
G1 X7.23 Y37.455 E.07596
G1 X7.869 Y36.049 E.07219
G1 X22.334 Y17.38 E1.10388
; printing object Battle Bitty Bot Front v0.2.stl id:0 copy 0
G1 E-2.45 F4800
;WIPE_START
G1 F43200
G1 X28.426 Y9.516 E-1.05
;WIPE_END
G1 X31.59 Y16.376 F54000
G1 E3.5 F2400
;TYPE:Support material
G1 F1200
G1 X31.59 Y10.904 E.25577
G1 X32.882 Y10.904 E.06039
G1 X32.882 Y9.613 E.06034
G1 X38.353 Y9.613 E.25572
G1 X31.628 Y16.339 E.44457
G1 X37.533 Y10.209 F54000
G1 F1200
G1 X37.533 Y9.929 E.01309
G1 X37.143 Y9.929 E.01823
G1 X37.143 Y10.376 E.02089
G1 X36.753 Y10.766 E.02578
G1 X36.753 Y9.929 E.03912
G1 X36.362 Y9.929 E.01828
G1 X36.362 Y11.157 E.0574
G1 X35.972 Y11.547 E.02578
G1 X35.972 Y9.929 E.07563
G1 X35.582 Y9.929 E.01823
G1 X35.582 Y11.937 E.09386
G1 X35.191 Y12.328 E.02585
G1 X35.191 Y9.929 E.11213
G1 X34.801 Y9.929 E.01823
G1 X34.801 Y12.718 E.13036
G1 X34.411 Y13.109 E.02581
G1 X34.411 Y9.929 E.14864
G1 X34.02 Y9.929 E.01828
G1 X34.02 Y13.499 E.16686
G1 X33.63 Y13.889 E.02578
G1 X33.63 Y9.929 E.18509
G1 X33.239 Y9.929 E.01828
G1 X33.239 Y14.28 E.20337
G1 X32.849 Y14.67 E.02578
G1 X32.849 Y11.221 E.16121
G1 X32.459 Y11.221 E.01823
G1 X32.459 Y15.06 E.17944
G1 X32.068 Y15.451 E.02585
G1 X32.068 Y11.062 E.20515
G1 E-2.45 F4800
;WIPE_START
G1 F43200
G1 X32.068 Y15.451 E-.46328
G1 X32.459 Y15.06 E-.05837
G1 X32.459 Y11.221 E-.40523
G1 X32.849 Y11.221 E-.04117
G1 X32.849 Y11.997 E-.08195
;WIPE_END
G1 X39.12 Y9.907 F54000
G1 E3.5 F2400
G1 F1200
G1 X38.826 Y9.613 E.01943
G1 X39.414 Y9.613 E.02748
G1 X39.157 Y9.87 E.01699
G1 E-2.45 F4800
;WIPE_START
G1 F43200
G1 X39.414 Y9.613 E-.03836
G1 X38.826 Y9.613 E-.06207
G1 X39.12 Y9.907 E-.04389
;WIPE_END
G1 E-.90568 F4800
G1 X38.876 Y13.761 F54000
G1 E3.5 F2400
G1 F1200
G1 X39.561 Y13.912 E.03279
G1 X40.115 Y14.176 E.02868
G1 X40.58 Y14.545 E.02775
G1 X40.949 Y15.01 E.02775
G1 X41.213 Y15.564 E.02868
G1 X41.362 Y16.196 E.03035
G1 X41.389 Y16.889 E.03242
G1 X41.287 Y17.621 E.03454
G1 X41.055 Y18.371 E.03669
G1 X40.701 Y19.111 E.03834
G1 X40.233 Y19.817 E.03959
G1 X39.666 Y20.464 E.04021
G1 X39.019 Y21.031 E.04021
G1 X38.314 Y21.499 E.03955
G1 X37.573 Y21.853 E.03838
G1 X36.823 Y22.085 E.03669
G1 X36.091 Y22.186 E.03454
G1 X35.398 Y22.16 E.03241
G1 X34.767 Y22.01 E.03032
G1 X34.213 Y21.747 E.02866
G1 X33.748 Y21.377 E.02778
G1 X33.378 Y20.912 E.02778
G1 X33.115 Y20.359 E.02862
G1 X32.965 Y19.727 E.03036
G1 X32.939 Y19.034 E.03241
G1 X33.04 Y18.302 E.03454
G1 X33.272 Y17.552 E.03669
G1 X33.626 Y16.811 E.03838
G1 X34.094 Y16.105 E.03959
G1 X34.66 Y15.458 E.04018
G1 X35.308 Y14.892 E.04022
G1 X36.014 Y14.424 E.03959
G1 X36.754 Y14.07 E.03834
G1 X37.504 Y13.838 E.03669
G1 X38.236 Y13.736 E.03454
G1 X38.823 Y13.759 E.02746
G1 X41.047 Y17.863 F54000
G1 F1200
G1 X41.047 Y16.237 E.076
G1 X40.913 Y15.67 E.02723
G1 X40.656 Y15.15 E.02711
G1 X40.656 Y18.473 E.15532
G1 X40.425 Y18.955 E.02498
G1 X40.266 Y19.196 E.0135
G1 X40.266 Y14.699 E.21019
G1 X39.947 Y14.446 E.01903
G1 X39.876 Y14.412 E.00368
G1 X39.876 Y19.746 E.24932
G1 X39.485 Y20.191 E.02769
G1 X39.485 Y14.227 E.27876
G1 X39.095 Y14.127 E.01882
G1 X39.095 Y20.544 E.29994
G1 X38.827 Y20.78 E.01669
G1 X38.705 Y20.861 E.00684
G1 X38.705 Y14.071 E.31737
G1 X38.314 Y14.056 E.01829
G1 X38.314 Y21.119 E.33013
G1 X38.157 Y21.223 E.0088
G1 X37.924 Y21.335 E.01208
G1 X37.924 Y14.099 E.33822
G1 X37.533 Y14.16 E.0185
G1 X37.533 Y21.522 E.34411
G1 X37.143 Y21.655 E.01926
G1 X37.143 Y14.28 E.34471
G1 X36.869 Y14.365 E.01341
G1 X36.753 Y14.421 E.00602
G1 X36.753 Y21.775 E.34373
G1 X36.362 Y21.829 E.01845
G1 X36.362 Y14.608 E.33752
G1 X36.17 Y14.7 E.00995
G1 X35.972 Y14.831 E.0111
G1 X35.972 Y21.865 E.32877
G1 X35.582 Y21.85 E.01824
G1 X35.582 Y15.089 E.31601
G1 X35.191 Y15.414 E.02376
G1 X35.191 Y21.786 E.29783
G1 X34.872 Y21.71 E.01533
G1 X34.801 Y21.677 E.00366
G1 X34.801 Y15.778 E.27572
G1 X34.411 Y16.224 E.02769
G1 X34.411 Y21.491 E.24618
G1 X34.02 Y21.19 E.02306
G1 X34.02 Y16.789 E.20571
G1 X33.902 Y16.968 E.01002
G1 X33.63 Y17.536 E.02944
G1 X33.63 Y20.975 E.16074
G1 E-2.45 F4800
;WIPE_START
G1 F43200
G1 X33.63 Y17.536 E-.36301
G1 X33.902 Y16.968 E-.06648
G1 X34.02 Y16.789 E-.02263
G1 X34.02 Y21.19 E-.46455
G1 X34.411 Y21.491 E-.05209
G1 X34.411 Y20.721 E-.08124
;WIPE_END
G1 X93.323 Y68.208 F54000
G1 E3.5 F2400
G1 F1200
G1 X94.008 Y68.36 E.0328
G1 X94.562 Y68.623 E.02866
G1 X95.028 Y68.992 E.02778
G1 X95.396 Y69.457 E.02772
G1 X95.66 Y70.012 E.02873
G1 X95.809 Y70.643 E.0303
G1 X95.836 Y71.336 E.03242
G1 X95.734 Y72.068 E.03454
G1 X95.503 Y72.818 E.03668
G1 X95.148 Y73.559 E.0384
G1 X94.681 Y74.265 E.03957
G1 X94.114 Y74.912 E.04021
G1 X93.467 Y75.478 E.04018
G1 X92.761 Y75.946 E.03959
G1 X92.021 Y76.3 E.03834
G1 X91.271 Y76.532 E.03669
G1 X90.538 Y76.634 E.03459
G1 X89.845 Y76.607 E.03242
G1 X89.214 Y76.458 E.0303
G1 X88.66 Y76.194 E.02868
G1 X88.195 Y75.825 E.02775
G1 X87.825 Y75.36 E.02778
G1 X87.562 Y74.806 E.02866
G1 X87.413 Y74.174 E.03035
G1 X87.386 Y73.481 E.03242
G1 X87.488 Y72.749 E.03454
G1 X87.719 Y71.999 E.03668
G1 X88.073 Y71.259 E.03834
G1 X88.541 Y70.553 E.03959
G1 X89.108 Y69.905 E.04025
G1 X89.755 Y69.339 E.04018
G1 X90.461 Y68.871 E.03959
G1 X91.201 Y68.517 E.03834
G1 X91.951 Y68.286 E.03668
G1 X92.683 Y68.184 E.03454
G1 X93.27 Y68.206 E.02746
G1 X95.307 Y72.861 F54000
G1 F1200
G1 X95.307 Y70.006 E.13344
G1 X95.126 Y69.625 E.01972
G1 X94.917 Y69.361 E.01574
G1 X94.917 Y73.31 E.18458
G1 X94.526 Y73.925 E.03406
G1 X94.526 Y68.998 E.23029
G1 X94.394 Y68.893 E.00788
G1 X94.136 Y68.771 E.01334
G1 X94.136 Y74.407 E.26343
G1 X93.89 Y74.688 E.01746
G1 X93.746 Y74.814 E.00894
G1 X93.746 Y68.623 E.28937
G1 X93.355 Y68.53 E.01879
G1 X93.355 Y75.156 E.3097
G1 X92.965 Y75.432 E.02233
G1 X92.965 Y68.511 E.32349
G1 X92.699 Y68.501 E.01244
G1 X92.575 Y68.518 E.00585
G1 X92.575 Y75.685 E.33499
G1 X92.184 Y75.872 E.02026
G1 X92.184 Y68.572 E.34121
G1 X92.02 Y68.595 E.00774
G1 X91.794 Y68.665 E.01106
G1 X91.794 Y76.039 E.34467
G1 X91.404 Y76.16 E.01909
G1 X91.404 Y68.785 E.34471
G1 X91.013 Y68.957 E.01997
G1 X91.013 Y76.248 E.34079
G1 X90.623 Y76.303 E.01841
G1 X90.623 Y69.144 E.33462
G1 X90.232 Y69.402 E.0219
G1 X90.232 Y76.305 E.32265
G1 X89.842 Y76.281 E.01826
G1 X89.842 Y69.683 E.3084
G1 X89.452 Y70.025 E.02425
G1 X89.452 Y76.189 E.28811
G1 X89.319 Y76.158 E.00638
G1 X89.061 Y76.035 E.01336
G1 X89.061 Y70.438 E.26161
G1 X88.793 Y70.745 E.01905
G1 X88.671 Y70.929 E.01032
G1 X88.671 Y75.799 E.22763
G1 X88.42 Y75.6 E.01497
G1 X88.281 Y75.424 E.01048
G1 X88.281 Y71.558 E.1807
G1 X88.014 Y72.114 E.02883
G1 X87.89 Y72.517 E.01971
G1 X87.89 Y75.128 E.12204
G1 E-2.45 F4800
;WIPE_START
G1 F43200
G1 X87.89 Y72.517 E-.27561
G1 X88.014 Y72.114 E-.04451
G1 X88.281 Y71.558 E-.06511
G1 X88.281 Y75.424 E-.40808
G1 X88.42 Y75.6 E-.02367
G1 X88.671 Y75.799 E-.03381
G1 X88.671 Y73.912 E-.19921
;WIPE_END
G1 X146.356 Y121.241 F54000
G1 E3.5 F2400
G1 F1200
G1 X147.041 Y121.393 E.0328
G1 X147.595 Y121.656 E.02866
G1 X148.061 Y122.025 E.02778
G1 X148.429 Y122.49 E.02772
G1 X148.693 Y123.045 E.02873
G1 X148.842 Y123.676 E.0303
G1 X148.869 Y124.369 E.03242
G1 X148.767 Y125.101 E.03454
G1 X148.536 Y125.851 E.03668
G1 X148.181 Y126.592 E.0384
G1 X147.714 Y127.298 E.03957
G1 X147.147 Y127.945 E.04021
G1 X146.5 Y128.511 E.04018
G1 X145.794 Y128.979 E.03959
G1 X145.054 Y129.333 E.03834
G1 X144.304 Y129.565 E.03669
G1 X143.571 Y129.667 E.03459
G1 X142.878 Y129.64 E.03242
G1 X142.247 Y129.491 E.0303
G1 X141.693 Y129.227 E.02868
G1 X141.228 Y128.858 E.02775
G1 X140.858 Y128.393 E.02778
G1 X140.595 Y127.839 E.02866
G1 X140.446 Y127.207 E.03035
G1 X140.419 Y126.514 E.03242
G1 X140.521 Y125.782 E.03454
G1 X140.752 Y125.032 E.03668
G1 X141.106 Y124.292 E.03834
G1 X141.574 Y123.586 E.03959
G1 X142.141 Y122.939 E.04021
G1 X142.788 Y122.372 E.04021
G1 X143.494 Y121.904 E.03959
G1 X144.234 Y121.55 E.03834
G1 X144.984 Y121.319 E.03668
G1 X145.716 Y121.217 E.03454
G1 X146.303 Y121.239 E.02746
G1 X148.397 Y125.766 F54000
G1 F1200
G1 X148.397 Y123.166 E.12153
G1 X148.159 Y122.658 E.02622
G1 X148.006 Y122.465 E.01151
G1 X148.006 Y126.225 E.17575
G1 X147.906 Y126.435 E.01087
G1 X147.616 Y126.873 E.02455
G1 X147.616 Y122.076 E.22422
G1 X147.427 Y121.926 E.01128
G1 X147.225 Y121.831 E.01043
G1 X147.225 Y127.375 E.25913
G1 X146.835 Y127.798 E.02689
G1 X146.835 Y121.669 E.28647
G1 X146.445 Y121.577 E.01873
G1 X146.445 Y128.139 E.30671
G1 X146.308 Y128.26 E.00854
G1 X146.054 Y128.427 E.01421
G1 X146.054 Y121.546 E.32162
G1 X145.664 Y121.543 E.01823
G1 X145.664 Y128.686 E.33387
G1 X145.274 Y128.878 E.02032
G1 X145.274 Y121.597 E.34032
G1 X145.053 Y121.628 E.01043
G1 X144.883 Y121.681 E.00832
G1 X144.883 Y129.055 E.34467
G1 X144.493 Y129.175 E.01907
G1 X144.493 Y121.801 E.34467
G1 X144.35 Y121.845 E.00699
G1 X144.103 Y121.963 E.01279
G1 X144.103 Y129.274 E.34172
G1 X143.712 Y129.328 E.01845
G1 X143.712 Y122.15 E.33551
G1 X143.322 Y122.397 E.02158
G1 X143.322 Y129.341 E.32457
G1 X142.931 Y129.325 E.01829
G1 X142.931 Y122.667 E.3112
G1 X142.541 Y123.009 E.02425
G1 X142.541 Y129.235 E.29101
G1 X142.352 Y129.191 E.00907
G1 X142.151 Y129.095 E.01041
G1 X142.151 Y123.408 E.26581
G1 X141.826 Y123.778 E.02302
G1 X141.76 Y123.877 E.00556
G1 X141.76 Y128.877 E.2337
G1 X141.453 Y128.633 E.01833
G1 X141.37 Y128.528 E.00626
G1 X141.37 Y124.473 E.18953
G1 X141.047 Y125.147 E.03493
G1 X140.98 Y125.367 E.01075
G1 X140.98 Y128.28 E.13616
G1 E-2.45 F4800
;WIPE_START
G1 F43200
G1 X140.98 Y125.367 E-.30748
G1 X141.047 Y125.147 E-.02428
G1 X141.37 Y124.473 E-.07889
G1 X141.37 Y128.528 E-.42803
G1 X141.453 Y128.633 E-.01413
G1 X141.76 Y128.877 E-.04139
G1 X141.76 Y127.401 E-.1558
;WIPE_END
G1 X140.893 Y130.45 F54000
G1 E3.5 F2400
;TYPE:Perimeter
;WIDTH:0.42
G1 F1200
G1 X140.998 Y130.53 E.00617
G1 X141.846 Y130.911 E.04345
G1 X142.763 Y131.111 E.04387
G1 X143.722 Y131.135 E.04484
G1 X144.692 Y130.988 E.04586
G1 X145.65 Y130.683 E.04699
G1 X146.574 Y130.231 E.04808
G1 X147.441 Y129.647 E.04886
G1 X148.23 Y128.946 E.04933
G1 X148.921 Y128.146 E.04941
G1 X149.494 Y127.266 E.04908
G1 X149.932 Y126.328 E.04839
G1 X150.221 Y125.352 E.04758
G1 X150.344 Y124.365 E.04649
G1 X150.313 Y123.561 E.03761
G1 X150.219 Y123.092 E.02236
G1 X153.123 Y125.996 E.19196
G1 X126.484 Y152.635 E1.76087
G1 X11.95 Y38.102 E7.57082
G1 X31.52 Y18.531 E1.29364
G1 X31.463 Y19.038 E.02385
G1 X31.517 Y20.01 E.0455
G1 X31.756 Y20.935 E.04466
G1 X32.181 Y21.777 E.04408
G1 X32.777 Y22.489 E.0434
G1 X33.518 Y23.049 E.04341
G1 X34.366 Y23.431 E.04347
G1 X35.283 Y23.631 E.04387
G1 X36.242 Y23.654 E.04484
G1 X37.212 Y23.508 E.04585
G1 X38.17 Y23.202 E.04701
G1 X39.094 Y22.751 E.04806
G1 X39.962 Y22.166 E.04893
G1 X40.749 Y21.466 E.04923
G1 X41.44 Y20.665 E.04945
G1 X42.013 Y19.785 E.04908
G1 X42.452 Y18.848 E.04836
G1 X42.741 Y17.872 E.04758
G1 X42.864 Y16.885 E.04649
G1 X42.833 Y16.081 E.03761
G1 X42.739 Y15.612 E.02236
G1 X93.96 Y66.833 E3.38578
G1 X93.491 Y66.739 E.02236
G1 X92.533 Y66.716 E.04479
G1 X91.562 Y66.862 E.0459
G1 X90.604 Y67.168 E.04701
G1 X89.681 Y67.619 E.04802
G1 X88.813 Y68.203 E.0489
G1 X88.024 Y68.904 E.04933
G1 X87.334 Y69.705 E.04941
G1 X86.761 Y70.585 E.04908
G1 X86.323 Y71.522 E.04834
G1 X86.034 Y72.498 E.04758
G1 X85.91 Y73.485 E.0465
G1 X85.964 Y74.457 E.0455
G1 X86.203 Y75.382 E.04466
G1 X86.629 Y76.224 E.04411
G1 X87.224 Y76.937 E.04341
G1 X87.965 Y77.497 E.04341
G1 X88.813 Y77.878 E.04345
G1 X89.73 Y78.078 E.04387
G1 X90.689 Y78.102 E.04484
G1 X91.659 Y77.955 E.04586
G1 X92.617 Y77.65 E.04699
G1 X93.541 Y77.198 E.04808
G1 X94.408 Y76.614 E.04886
G1 X95.197 Y75.913 E.04933
G1 X95.888 Y75.113 E.04941
G1 X96.461 Y74.233 E.04908
G1 X96.899 Y73.295 E.04839
G1 X97.188 Y72.319 E.04758
G1 X97.311 Y71.332 E.04649
G1 X97.28 Y70.528 E.03761
G1 X97.186 Y70.059 E.02236
G1 X146.993 Y119.866 E3.29231
G1 X146.524 Y119.772 E.02236
G1 X145.566 Y119.749 E.04479
G1 X144.595 Y119.895 E.0459
G1 X143.637 Y120.201 E.04701
G1 X142.714 Y120.652 E.04802
G1 X141.846 Y121.237 E.04893
G1 X141.059 Y121.937 E.04923
G1 X140.367 Y122.738 E.04948
G1 X139.794 Y123.618 E.04908
G1 X139.356 Y124.555 E.04834
G1 X139.067 Y125.531 E.04758
G1 X138.943 Y126.518 E.0465
G1 X138.997 Y127.49 E.0455
G1 X139.236 Y128.415 E.04466
G1 X139.662 Y129.257 E.04411
G1 X140.257 Y129.97 E.04341
G1 X140.845 Y130.414 E.03444
G1 X141.095 Y130.171 F54000
G1 F1200
G1 X141.149 Y130.212 E.00317
G1 X141.927 Y130.569 E.04001
G1 X142.777 Y130.76 E.04072
G1 X143.674 Y130.787 E.04195
G1 X144.589 Y130.652 E.04323
G1 X145.499 Y130.366 E.04459
G1 X146.38 Y129.939 E.04576
G1 X147.21 Y129.383 E.04669
G1 X147.966 Y128.715 E.04715
G1 X148.628 Y127.952 E.04722
G1 X149.177 Y127.114 E.04683
G1 X149.596 Y126.225 E.04594
G1 X149.873 Y125.304 E.04495
G1 X149.993 Y124.378 E.04364
G1 X149.949 Y123.474 E.0423
G1 X149.734 Y122.619 E.04121
;WIDTH:0.461921
G1 X149.56 Y122.22 E.02277
;WIDTH:0.503843
G1 X149.385 Y121.82 E.02528
G1 X149.486 Y121.902 E.00753
;WIDTH:0.476439
G1 X149.759 Y122.155 E.02019
;WIDTH:0.448219
G1 X150.033 Y122.409 E.01887
;WIDTH:0.42
G1 X153.62 Y125.996 E.23711
G1 X126.484 Y153.132 E1.79373
G1 X11.453 Y38.102 E7.60367
G1 X32.145 Y17.404 E1.36797
G1 X31.935 Y18.099 E.03394
G1 X31.814 Y19.025 E.04365
G1 X31.859 Y19.929 E.04231
G1 X32.073 Y20.784 E.0412
G1 X32.456 Y21.558 E.04036
G1 X32.995 Y22.214 E.03968
G1 X33.669 Y22.732 E.03973
G1 X34.446 Y23.089 E.03997
G1 X35.297 Y23.28 E.04077
G1 X36.193 Y23.306 E.0419
G1 X37.109 Y23.172 E.04327
G1 X38.019 Y22.885 E.0446
G1 X38.9 Y22.458 E.04576
G1 X39.73 Y21.902 E.04669
G1 X40.485 Y21.234 E.04712
G1 X41.148 Y20.471 E.04725
G1 X41.697 Y19.634 E.04679
G1 X42.116 Y18.744 E.04598
G1 X42.393 Y17.824 E.04491
G1 X42.513 Y16.898 E.04364
G1 X42.468 Y15.994 E.04231
G1 X42.254 Y15.139 E.0412
;WIDTH:0.46192
G1 X42.079 Y14.739 E.02284
;WIDTH:0.503841
G1 X41.904 Y14.34 E.02522
G1 X42.006 Y14.422 E.00758
;WIDTH:0.476438
G1 X42.279 Y14.675 E.02019
;WIDTH:0.448219
G1 X42.553 Y14.929 E.01887
;WIDTH:0.42
G1 X94.644 Y67.02 E3.44329
;WIDTH:0.464319
G1 X94.926 Y67.333 E.02218
;WIDTH:0.508639
G1 X95.208 Y67.646 E.02466
G1 X95.12 Y67.608 E.00561
;WIDTH:0.487009
G1 X94.724 Y67.444 E.02385
;WIDTH:0.453504
G1 X94.328 Y67.281 E.02192
;WIDTH:0.42
G1 X93.478 Y67.09 E.04072
G1 X92.581 Y67.064 E.04194
G1 X91.666 Y67.198 E.04322
G1 X90.756 Y67.485 E.0446
G1 X89.875 Y67.912 E.04576
G1 X89.045 Y68.467 E.04667
G1 X88.289 Y69.136 E.04718
G1 X87.627 Y69.899 E.04722
G1 X87.078 Y70.736 E.04679
G1 X86.659 Y71.626 E.04598
